X:1
T: The Banks of Avonmore
C:
R:Reel
Q:232
K:G
M:4/4
L:1/8
dc|:BG GG G3c|BG GA Bd gd|BG GG G3B|AG FG AB cd|
BG GG G3c|BG GA Bd gd|BG GG G3B|AG FG AB cd|
Bd dd d3c|Bd ef gf gd|Bd dd d3B|AG FG AB cd|
Bd dd d3c|Bd ef gf ga|bg af gf ec|AG FG AB cd:|
